src/img/waveDark2.svg

<svg xmlns="http://www.w3.org/2000/svg" width="1360" height="600" preserveAspectRatio="none"><g fill="none" mask="url(&quot;#a&quot;)"><path fill="rgba(34, 16, 74, 1)" d="M0 0h1360v600H0z"/><path fill="rgba(9, 75, 101, 1)" d="M0 208c34 55.8 102 298.2 170 279 68-19.2 102-367.8 170-375 68-7.2 102 305.2 170 339 68 33.8 102-177.6 170-170 68 7.6 102 231 170 208s102-324.6 170-323c68 1.6 102 319.6 170 331 68 11.4 136-219.2 170-274v377H0z"/></g><defs><mask id="a"><path fill="#fff" d="M0 0h1360v600H0z"/></mask></defs></svg>

<svg xmlns="http://www.w3.org/2000/svg" version="1.1" xmlns:xlink="http://www.w3.org/1999/xlink" xmlns:svgjs="http://svgjs.com/svgjs" width="1360" height="600" preserveAspectRatio="none" viewBox="0 0 1360 600"><g mask="url(&quot;#SvgjsMask1015&quot;)" fill="none"><rect width="1360" height="600" x="0" y="0" fill="rgba(34, 16, 74, 1)"></rect><path d="M 0,208 C 34,263.8 102,506.2 170,487 C 238,467.8 272,119.2 340,112 C 408,104.8 442,417.2 510,451 C 578,484.8 612,273.4 680,281 C 748,288.6 782,512 850,489 C 918,466 952,164.4 1020,166 C 1088,167.6 1122,485.6 1190,497 C 1258,508.4 1326,277.8 1360,223L1360 600L0 600z" fill="rgba(9, 75, 101, 1)"></path></g><defs><mask id="SvgjsMask1015"><rect width="1360" height="600" fill="#ffffff"></rect></mask></defs></svg>
